X: 1
T: Michael Gorman's
T:Tipperary Hills
M: 9/8
L: 1/8
K: Dmaj
F3 A2F A2F|G3 B2G B2G|F3 A2F A2F|Bcd A2G FED:|
d3 f2d cBA|B2e e2d cBA| d3 f2d cBA|Bcd A2G FED|
d3 f2d cBA|B2e e2d cBA|fed edc d2B|A2B A2G FED|]






